icons/icn_libro.svg

<svg width="24" xmlns="http://www.w3.org/2000/svg" height="24" id="screenshot-39defeb7-7fd6-80d5-8006-9842e9a44e87" viewBox="0 0 24 24" xmlns:xlink="http://www.w3.org/1999/xlink" fill="none" version="1.1"><g id="shape-39defeb7-7fd6-80d5-8006-9842e9a44e87"><g class="frame-container-wrapper"><g class="frame-container-blur"><g class="frame-container-shadows"><g fill="none"><g class="fills" id="fills-39defeb7-7fd6-80d5-8006-9842e9a44e87"><rect rx="0" ry="0" x="0" y="0" width="24" height="24.000000000000455" transform="matrix(1, 0, 0, 1, 0, 0)" class="frame-background"/></g><g class="frame-children"><g id="shape-39defeb7-7fd6-80d5-8006-9843046839d6" rx="0" ry="0" style="fill: rgb(0, 0, 0);"><g id="shape-39defeb7-7fd6-80d5-8006-9843046839d8" style="opacity: 1;"><g class="fills" id="fills-39defeb7-7fd6-80d5-8006-9843046839d8"><path d="M7.002001762390137,2.0947265625C5.305956840515137,2.0947265625,3.916308641433716,3.4842529296875,3.916308641433716,5.1800537109375C3.915576219558716,9.7298583984375,3.916308641433716,14.270751953125,3.916308641433716,18.820068359375C3.916308641433716,18.843994140625,3.920214891433716,18.8665771484375,3.920214891433716,18.89013671875C3.920214891433716,18.9136962890625,3.916308641433716,18.936767578125,3.916308641433716,18.960693359375C3.919238328933716,18.9796142578125,3.922900438308716,18.99853515625,3.927539110183716,19.0174560546875C4.030810356140137,20.6220703125,5.372607231140137,21.9058837890625,7.002001762390137,21.9058837890625L19.351612091064453,21.9058837890625C19.754688262939453,21.9053955078125,20.082324981689453,21.5787353515625,20.083301544189453,21.175048828125L20.083301544189453,16.6129150390625L20.083301544189453,2.8250732421875C20.082324981689453,2.42138671875,19.754688262939453,2.09521484375,19.351612091064453,2.0947265625ZM7.002001762390137,3.5552978515625L18.620899200439453,3.5552978515625L18.620899200439453,15.882568359375L7.002001762390137,15.882568359375C6.407763481140137,15.882568359375,5.854052543640137,16.05615234375,5.381640434265137,16.3494873046875C5.383593559265137,12.6256103515625,5.389208793640137,8.9053955078125,5.389208793640137,5.1800537109375C5.389208793640137,4.2713623046875,6.095019340515137,3.5552978515625,7.003954887390137,3.5552978515625ZM7.002001762390137,17.34375L18.620899200439453,17.34375L18.620899200439453,20.44482421875L7.002001762390137,20.44482421875C6.144824028015137,20.44482421875,5.461962699890137,19.8077392578125,5.387255668640137,18.9722900390625C5.387255668640137,18.9718017578125,5.387255668640137,18.970947265625,5.387255668640137,18.970458984375C5.387255668640137,18.969970703125,5.387255668640137,18.9691162109375,5.387255668640137,18.9686279296875C5.387255668640137,18.9676513671875,5.387255668640137,18.9671630859375,5.387255668640137,18.966796875C5.387255668640137,18.9658203125,5.387255668640137,18.96533203125,5.387255668640137,18.9644775390625C5.387255668640137,18.9639892578125,5.387255668640137,18.9630126953125,5.387255668640137,18.962646484375C5.387255668640137,18.962158203125,5.387255668640137,18.961181640625,5.387255668640137,18.960693359375C5.387255668640137,18.0513916015625,6.093066215515137,17.34375,7.002001762390137,17.34375Z" style="display: inline; stroke-linecap: round; stroke-linejoin: round; fill: rgb(0, 0, 0); fill-opacity: 1;"/></g></g><g id="shape-39defeb7-7fd6-80d5-8006-9843046839dc" style="opacity: 1;"><g class="fills" id="fills-39defeb7-7fd6-80d5-8006-9843046839dc"><path d="M7.999560356140137,6.094970703125C7.596240043640137,6.0963134765625,7.269579887390137,6.4224853515625,7.268603324890137,6.8258056640625C7.269579887390137,7.2288818359375,7.596240043640137,7.5550537109375,7.999560356140137,7.5565185546875L16.001270294189453,7.5565185546875C16.404590606689453,7.5550537109375,16.730274200439453,7.2288818359375,16.731983184814453,6.8258056640625C16.730274200439453,6.4224853515625,16.404590606689453,6.0963134765625,16.001270294189453,6.094970703125Z" style="display: inline; stroke-linecap: round; stroke-linejoin: round; fill: rgb(0, 0, 0); fill-opacity: 1;"/></g></g><g id="shape-39defeb7-7fd6-80d5-8006-9843046839dd" style="opacity: 1;"><g class="fills" id="fills-39defeb7-7fd6-80d5-8006-9843046839dd"><path d="M7.999560356140137,9.091796875C7.596240043640137,9.0931396484375,7.269579887390137,9.4193115234375,7.268603324890137,9.8226318359375C7.267870903015137,10.017333984375,7.343554496765137,10.205078125,7.481005668640137,10.343505859375C7.618456840515137,10.48193359375,7.804736137390137,10.5601806640625,7.999560356140137,10.5606689453125L16.001270294189453,10.5606689453125C16.195850372314453,10.5601806640625,16.382373809814453,10.48193359375,16.519824981689453,10.343505859375C16.657276153564453,10.205078125,16.732959747314453,10.017333984375,16.731983184814453,9.8226318359375C16.730274200439453,9.4193115234375,16.404590606689453,9.0931396484375,16.001270294189453,9.091796875Z" style="display: inline; stroke-linecap: round; stroke-linejoin: round; fill: rgb(0, 0, 0); fill-opacity: 1;"/></g></g><g id="shape-39defeb7-7fd6-80d5-8006-9843046839de" style="opacity: 1;"><g class="fills" id="fills-39defeb7-7fd6-80d5-8006-9843046839de"><path d="M7.999560356140137,12.0887451171875C7.804736137390137,12.089111328125,7.618456840515137,12.1676025390625,7.481005668640137,12.305908203125C7.343554496765137,12.4443359375,7.267870903015137,12.632080078125,7.268603324890137,12.8267822265625C7.269579887390137,13.22998046875,7.596240043640137,13.55615234375,7.999560356140137,13.5576171875L16.001270294189453,13.5576171875C16.404590606689453,13.55615234375,16.730274200439453,13.22998046875,16.731983184814453,12.8267822265625C16.732959747314453,12.632080078125,16.657276153564453,12.4443359375,16.519824981689453,12.305908203125C16.382373809814453,12.1676025390625,16.195850372314453,12.089111328125,16.001270294189453,12.0887451171875Z" style="display: inline; stroke-linecap: round; stroke-linejoin: round; fill: rgb(0, 0, 0); fill-opacity: 1;"/></g></g></g></g></g></g></g></g></g></svg>

<svg fill="none" viewBox="0 0 24 24"><g class="frame-container-wrapper"><g class="frame-container-blur"><g class="frame-container-shadows"><g class="fills"><rect width="24" height="24" class="frame-background" rx="0" ry="0"/></g><g fill="#000" class="frame-children"><path d="M7.002 2.0947c-1.696 0-3.0857 1.3896-3.0857 3.0854-.0007 4.5498 0 9.0907 0 13.64 0 .0239.004.0465.004.07 0 .0236-.004.0467-.004.0706a.666.666 0 0 0 .0112.0568c.1033 1.6046 1.4451 2.8884 3.0745 2.8884h12.3496a.7328.7328 0 0 0 .7317-.7309V2.825a.7324.7324 0 0 0-.7317-.7303Zm0 1.4606h11.6189v12.3273H7.002c-.5942 0-1.148.1736-1.6204.4669.002-3.7239.0076-7.4441.0076-11.1694 0-.9087.7058-1.6248 1.6148-1.6248Zm0 13.7885h11.6189v3.101H7.002c-.8572 0-1.54-.637-1.6147-1.4725v-.0117c0-.9092.7058-1.6168 1.6147-1.6168Z" class="fills"/><path d="M7.9996 6.095a.7328.7328 0 0 0-.731.7308c.001.403.3276.7293.731.7307h8.0017a.7332.7332 0 0 0 .7307-.7307.733.733 0 0 0-.7307-.7308ZM7.9996 9.0918a.7328.7328 0 0 0-.731.7308.7332.7332 0 0 0 .731.738h8.0017a.7336.7336 0 0 0 .5185-.217.7336.7336 0 0 0 .2122-.521.733.733 0 0 0-.7307-.7308ZM7.9996 12.0887a.7332.7332 0 0 0-.731.738c.001.4033.3276.7295.731.731h8.0017a.7333.7333 0 0 0 .7307-.731.7336.7336 0 0 0-.2122-.5208.7336.7336 0 0 0-.5185-.2172Z" class="fills"/></g></g></g></g></svg>
